Cloud/dashboard/static/tracks/spa_francorchamps.svg

<?xml version="1.0" encoding="UTF-8"?>
<!-- Uploaded to: SVG Find, www.svgfind.com, Generator: SVG Find Mixer Tools -->
<svg fill="#000000" width="800px" height="800px" version="1.1" viewBox="144 144 512 512" xmlns="http://www.w3.org/2000/svg">
 <path d="m604.23 432.01-9.3594-5.5859c-3.582-2.1367-4.9336-6.7344-3.0859-10.469l1.3398-2.6992c3.7422-7.5469 1.9062-16.672-4.4609-22.191-23.766-20.586-102.81-89-122.03-105.02-18.652-15.547-39.285-23.945-55.859-30.695-4.2578-1.7344-8.2617-3.3633-11.895-4.9805-10.293-4.582-16.594-10.938-22.16-16.551-3.4492-3.4805-6.707-6.7656-10.434-9.0703-3.6523-2.2578-7.832-3.3086-13.16-3.3086-2.2266 0-4.4609 0.18359-6.6172 0.36719-3.2383 0.27344-6.5156 0.46875-8.1914-0.074219-7.9258-2.5625-45.52-14.273-71.27-20.578-10.656-2.6094-23.207-3.9336-37.309-3.9336-11.938 0-24.445 0.96875-36.18 2.7969-3.918 0.60938-6.8789 3.5312-7.543 7.4414-0.66016 3.9102 1.1719 7.6445 4.6758 9.5117l86.527 46.176-2.3281 4.3984-37.793-20-10.09-5.3398 8.2266 13.746 4.707-1.2656 37.027 19.594 4.6484-8.7852 16.195 8.6406-2.0078 0.83984c-2.75 1.1445-4.7422 3.4531-5.4766 6.3359-0.73828 2.8789-0.09375 5.8633 1.9648 8.418l21.051 23.172c3.9492 4.9414 8.4258 9.4844 13.305 13.5 12.336 10.16 37.684 31.016 47.711 39.148 12.273 9.957 13.812 36.539 13.777 58.586-0.035156 23.52-10.742 40.07-23.668 57.75-12.227 16.707-18.219 39.23-16.438 61.797 0.59375 7.5352 1.7773 17.621 3.5195 29.98 1.9258 13.637 12.809 24.348 26.461 26.047l23.508 2.9297c0.79297 0.10156 1.5781 0.14453 2.3516 0.14453 5.168 0 10.164-2.1836 13.699-5.9922 3.582-3.8555 5.3359-8.875 4.9492-14.133l-2.8086-37.582c-0.51953-7.0078 4.3047-13.188 11.234-14.375l13-2.2266c5.5273-0.94531 10.324-4.0078 13.512-8.6211 3.1797-4.6133 4.3477-10.184 3.2734-15.691-4.2031-21.516-11.508-58.965-14.055-72.27-3.8438-20.07 15.188-30.887 19.043-32.855 9.0977-4.6328 16.137-4.5156 26.23 0.75391 5.5117 2.8828 14.426 13.77 20.93 21.715 4.4922 5.4805 8.0312 9.8125 10.609 11.953 3.0391 2.5234 17.84 15.668 41.68 37.012 4.0625 3.6406 4.6953 9.6992 1.4648 14.098l-10.293 14.012c-2.9297 3.9961-4.0898 9.0781-3.1875 13.949 0.89844 4.8711 3.8047 9.1992 7.9727 11.875 2.9141 1.875 6.2773 2.8672 9.7188 2.8672 7.2461 0 13.758-4.3047 16.598-10.965l25.07-58.91c3.9492-9.2969 0.39453-20.207-8.2812-25.387zm-0.89453 21.484-25.07 58.906c-1.8672 4.3906-7.6953 6.2383-11.77 3.6211-1.8906-1.2148-3.1562-3.0977-3.5664-5.3047-0.41016-2.2109 0.097656-4.4258 1.4258-6.2383l10.289-14.012c6.2852-8.5508 5.0586-20.34-2.8477-27.418-16.926-15.152-37.941-33.918-41.957-37.25-1.8438-1.5312-5.4492-5.9375-9.2695-10.605-7.832-9.5664-16.707-20.406-24.027-24.234-13.016-6.8008-23.375-6.918-35.367-0.80078-14.383 7.332-28.32 22.633-24.305 43.602 2.5508 13.312 9.8633 50.777 14.066 72.305 0.55469 2.8477-0.050781 5.7344-1.6992 8.1211-1.6484 2.3867-4.1289 3.9727-6.9922 4.4609l-13 2.2266c-12.012 2.0586-20.391 12.777-19.484 24.938l2.8086 37.582c0.17969 2.4609-0.64062 4.8125-2.3164 6.6133-1.9102 2.0625-4.6797 3.1016-7.5117 2.7422l-23.512-2.9297c-9.1953-1.1445-16.527-8.3633-17.824-17.547-1.7109-12.16-2.8711-22.043-3.4492-29.375-1.5938-20.223 3.707-40.32 14.547-55.133 13.461-18.41 25.551-37.129 25.59-63.617 0.039063-25.77-2.0039-53.797-17.465-66.34-10.016-8.1211-35.336-28.953-47.652-39.102-4.3477-3.5781-8.3398-7.625-12.062-12.27l-20.52-22.59 2.6211-1.0938c3.6406-1.5195 5.7031-5.6523 5.8594-8.9453 0.14453-3.0938-1.2539-5.7344-3.7578-7.0703l-107.34-57.277c10.441-1.4922 21.43-2.2773 31.957-2.2773 13.305 0 25.059 1.2266 34.938 3.6484 25.469 6.2383 62.723 17.844 70.578 20.383 3.168 1.0234 7.3477 0.92969 12.109 0.51953 1.8789-0.15625 3.8203-0.33203 5.7656-0.33203 3.4414 0 5.8828 0.5625 7.9258 1.8203 2.7148 1.6797 5.4375 4.4258 8.5977 7.6133 5.8711 5.9219 13.18 13.293 25.176 18.637 3.7305 1.6602 7.832 3.332 12.191 5.1094 15.941 6.4883 35.777 14.566 53.238 29.121 19.16 15.965 98.145 84.328 121.89 104.9 2.9375 2.543 3.7852 6.7539 2.0625 10.234l-1.3398 2.6992c-4.1484 8.3672-1.1172 18.668 6.8984 23.453l9.3594 5.5859c4.418 2.6289 6.2305 8.1875 4.2148 12.922z"/>
</svg>

<?xml version="1.0" encoding="utf-8"?>
<svg fill="#000000" width="800px" height="800px" version="1.1" viewBox="144 144 512 512" xmlns="http://www.w3.org/2000/svg">
  <path d="M 604.23 432.01 L 594.871 426.424 C 591.289 424.287 589.937 419.69 591.785 415.955 L 593.125 413.256 C 596.867 405.709 595.031 396.584 588.664 391.065 C 564.898 370.479 485.854 302.065 466.634 286.045 C 447.982 270.498 427.349 262.1 410.775 255.35 C 406.517 253.616 402.513 251.987 398.88 250.369 C 388.587 245.787 382.286 239.431 376.72 233.818 C 373.27 230.338 370.013 227.053 366.286 224.748 C 362.633 222.49 358.454 221.44 353.126 221.44 C 350.899 221.44 348.665 221.623 346.508 221.807 C 343.27 222.08 339.993 222.275 338.317 221.732 C 330.391 219.17 292.797 207.46 267.047 201.154 C 256.391 198.545 243.84 197.221 229.738 197.221 C 217.8 197.221 205.293 198.19 193.558 200.018 C 189.64 200.627 186.679 203.549 186.015 207.459 C 185.355 211.369 187.187 215.104 190.691 216.971 L 297.811 274.135 L 295.803 274.975 C 293.053 276.12 291.061 278.428 290.326 281.311 C 289.588 284.19 290.233 287.174 292.291 289.729 L 313.342 312.901 C 317.291 317.842 321.768 322.385 326.647 326.401 C 338.983 336.561 364.331 357.417 374.358 365.549 C 386.631 375.506 388.17 402.088 388.135 424.135 C 388.1 447.655 377.393 464.205 364.467 481.885 C 352.24 498.592 346.248 521.115 348.029 543.682 C 348.623 551.217 349.807 561.303 351.549 573.662 C 353.475 587.299 364.358 598.01 378.01 599.709 L 401.518 602.639 C 402.311 602.74 403.096 602.783 403.869 602.783 C 409.037 602.783 414.033 600.6 417.568 596.791 C 421.15 592.936 422.904 587.916 422.517 582.658 L 419.709 545.076 C 419.189 538.068 424.014 531.888 430.943 530.701 L 443.943 528.475 C 449.47 527.529 454.267 524.467 457.455 519.853 C 460.635 515.24 461.803 509.669 460.728 504.162 C 456.525 482.646 449.22 445.197 446.673 431.892 C 442.829 411.822 461.861 401.005 465.716 399.037 C 474.814 394.405 481.853 394.522 491.946 399.791 C 497.458 402.674 506.372 413.561 512.876 421.506 C 517.369 426.987 520.908 431.319 523.485 433.459 C 526.524 435.983 541.325 449.127 565.165 470.471 C 569.228 474.112 569.861 480.171 566.63 484.569 L 556.337 498.581 C 553.407 502.577 552.247 507.659 553.15 512.53 C 554.048 517.401 556.954 521.73 561.122 524.405 C 564.036 526.28 567.4 527.273 570.841 527.273 C 578.087 527.273 584.599 522.968 587.439 516.307 L 612.509 457.397 C 616.458 448.101 612.904 437.19 604.228 432.01 L 604.23 432.01 Z M 603.335 453.494 L 578.265 512.4 C 576.398 516.791 570.57 518.638 566.495 516.021 C 564.605 514.806 563.339 512.923 562.929 510.716 C 562.519 508.506 563.027 506.291 564.355 504.478 L 574.644 490.466 C 580.929 481.915 579.702 470.126 571.796 463.048 C 554.87 447.896 533.855 429.13 529.839 425.798 C 527.995 424.267 524.39 419.861 520.57 415.193 C 512.738 405.627 503.863 394.787 496.543 390.959 C 483.527 384.158 473.168 384.041 461.176 390.158 C 446.793 397.49 432.856 412.791 436.871 433.76 C 439.421 447.072 446.734 484.537 450.937 506.065 C 451.491 508.913 450.886 511.8 449.237 514.186 C 447.589 516.573 445.109 518.159 442.245 518.647 L 429.245 520.874 C 417.233 522.932 408.854 533.651 409.761 545.812 L 412.57 583.394 C 412.75 585.855 411.929 588.206 410.253 590.007 C 408.343 592.07 405.574 593.109 402.742 592.749 L 379.23 589.82 C 370.034 588.675 362.703 581.456 361.406 572.273 C 359.695 560.113 358.535 550.23 357.957 542.898 C 356.363 522.675 361.664 502.578 372.504 487.765 C 385.965 469.355 398.055 450.636 398.094 424.148 C 398.133 398.378 396.09 370.351 380.629 357.808 C 370.613 349.687 345.293 328.855 332.977 318.706 C 328.629 315.128 324.637 311.081 320.915 306.436 L 300.395 283.846 L 303.016 282.752 C 306.656 281.232 308.719 277.1 308.875 273.807 C 309.02 270.713 307.621 268.072 305.117 266.736 L 197.777 209.459 C 208.218 207.967 219.207 207.182 229.734 207.182 C 243.039 207.182 254.793 208.409 264.672 210.83 C 290.141 217.069 327.395 228.674 335.25 231.213 C 338.418 232.237 342.598 232.143 347.359 231.733 C 349.238 231.577 351.18 231.401 353.125 231.401 C 356.566 231.401 359.008 231.963 361.051 233.221 C 363.765 234.901 366.488 237.647 369.648 240.834 C 375.519 246.756 382.828 254.127 394.824 259.471 C 398.555 261.132 402.656 262.803 407.015 264.581 C 422.956 271.069 442.792 279.147 460.253 293.702 C 479.413 309.667 558.398 378.03 582.143 398.602 C 585.081 401.145 585.929 405.356 584.206 408.836 L 582.866 411.535 C 578.718 419.902 581.749 430.203 589.764 434.988 L 599.124 440.574 C 603.542 443.203 605.354 448.762 603.339 453.496 L 603.335 453.494 Z"/>
</svg>
